X:212
T:The Return of the Admiral
C:No 212 Page 104 William Clarke of Feltwell
M:4/4
L:1/8
N:In m.s. the5th note bar 5 is ambiguous – could be E or F#.
K:G
“Segue”G2|BBdd gddg|fedcB3d|ecced2Bd|cdBcA3d|d^cBAf2dd|fd^cAf3f|fgBe efAd|d^cBAf3f|fgBe efAd|d^cfeHd3d|cBcA Bdg2|fefd g3g|g>gg>g gdd>d|c_BAG HD2dd|dedB cdcA|Bdgf He2Hf2|gfgf gddB|Aedc B3d|gfed fedc|BAGFG2||

